static/img/kroki/961d05b1bea8770ddafedf940ffb47bb.svg

<?xml version="1.0" encoding="us-ascii" standalone="no"?><svg xmlns="http://www.w3.org/2000/svg" xmlns:xlink="http://www.w3.org/1999/xlink" contentStyleType="text/css" height="152px" preserveAspectRatio="none" style="width:340px;height:152px;" version="1.1" viewBox="0 0 340 152" width="340px" zoomAndPan="magnify"><defs/><g><!--class aws_route53_resource_record--><g id="elem_aws_route53_resource_record"><rect codeLine="23" fill="#3D176E" height="39.7891" id="aws_route53_resource_record" rx="2.5" ry="2.5" style="stroke:#000D19;stroke-width:0.5;" width="292" x="24" y="106.79"/><ellipse cx="39" cy="126.6845" fill="#ADD1B2" rx="11" ry="11" style="stroke:#181818;stroke-width:1.0;"/><path d="M41.9688,132.3252 Q41.3906,132.622 40.75,132.7627 Q40.1094,132.9189 39.4063,132.9189 Q36.9063,132.9189 35.5781,131.2783 Q34.2656,129.622 34.2656,126.497 Q34.2656,123.372 35.5781,121.7158 Q36.9063,120.0595 39.4063,120.0595 Q40.1094,120.0595 40.75,120.2158 Q41.4063,120.372 41.9688,120.6689 L41.9688,123.3877 Q41.3438,122.8095 40.75,122.5439 Q40.1563,122.2627 39.5313,122.2627 Q38.1875,122.2627 37.5,123.3408 Q36.8125,124.4033 36.8125,126.497 Q36.8125,128.5908 37.5,129.6689 Q38.1875,130.7314 39.5313,130.7314 Q40.1563,130.7314 40.75,130.4658 Q41.3438,130.1845 41.9688,129.6064 L41.9688,132.3252 Z " fill="#000000"/><text fill="#D9B8FF" font-family="Helvetica" font-size="17" lengthAdjust="spacing" textLength="250" x="58" y="132.5698">aws_route53_resource_record</text></g><!--class aws_route53_resource_record_set--><g id="elem_aws_route53_resource_record_set"><rect codeLine="26" fill="#3D176E" height="39.7891" id="aws_route53_resource_record_set" rx="2.5" ry="2.5" style="stroke:#000D19;stroke-width:0.5;" width="326" x="7" y="7"/><ellipse cx="22" cy="26.8945" fill="#ADD1B2" rx="11" ry="11" style="stroke:#181818;stroke-width:1.0;"/><path d="M24.9688,32.5352 Q24.3906,32.832 23.75,32.9727 Q23.1094,33.1289 22.4063,33.1289 Q19.9063,33.1289 18.5781,31.4883 Q17.2656,29.832 17.2656,26.707 Q17.2656,23.582 18.5781,21.9258 Q19.9063,20.2695 22.4063,20.2695 Q23.1094,20.2695 23.75,20.4258 Q24.4063,20.582 24.9688,20.8789 L24.9688,23.5977 Q24.3438,23.0195 23.75,22.7539 Q23.1563,22.4727 22.5313,22.4727 Q21.1875,22.4727 20.5,23.5508 Q19.8125,24.6133 19.8125,26.707 Q19.8125,28.8008 20.5,29.8789 Q21.1875,30.9414 22.5313,30.9414 Q23.1563,30.9414 23.75,30.6758 Q24.3438,30.3945 24.9688,29.8164 L24.9688,32.5352 Z " fill="#000000"/><text fill="#D9B8FF" font-family="Helvetica" font-size="17" lengthAdjust="spacing" textLength="284" x="41" y="32.7798">aws_route53_resource_record_set</text></g><!--link aws_route53_resource_record_set to aws_route53_resource_record--><g id="link_aws_route53_resource_record_set_aws_route53_resource_record"><path codeLine="29" d="M170,47.22 C170,64.36 170,83.27 170,100.41 " fill="none" id="aws_route53_resource_record_set-to-aws_route53_resource_record" style="stroke:#1A83AF;stroke-width:2.0;"/><polygon fill="#1A83AF" points="170,106.41,174,97.41,170,101.41,166,97.41,170,106.41" style="stroke:#1A83AF;stroke-width:2.0;"/></g><!--SRC=[XT1HIyCm40VmztwAm9u7hMMsUn5gOUZB4EURoCYQonhQ9kLojKpnkziwbTYwzYtaVjpzxt8bW45LqubLK1q0hMSBfMkEl689ecbJKnfa2ocv3ADXSMCqpO8jhu3TGVaAf38-54-voWeDrh8hftJBi-A8fj7Yt9wGQzkLG9EZqf9Rcn2XEZG4JXYnFiHI3kMmwI8KGNGD8sPG07uJt_T5i1wIsL6JU_-AdNe35hX7sng2KSpHY2yrcR8NJiZHeZ_rYnaVk11A7zdA-NiyPq8D-ET_btDXsbvBNbftZ2L0C7Ig8Hrj1UjOoEXVV7y9Urb_EiPRk- -g1AjmZs1DWnbqZwmx2Nltl8zvjhT0Ppg7bi-B88d3PFEol9dgw7q2]--></g></svg>

<svg xmlns="http://www.w3.org/2000/svg" width="340" height="152" viewBox="0 0 340 152"><rect width="292" height="39.789" x="24" y="106.79" fill="#3D176E" rx="2.5" ry="2.5" style="stroke:#000d19;stroke-width:.5"/><circle cx="39" cy="126.684" r="11" fill="#ADD1B2" style="stroke:#181818;stroke-width:1"/><path d="M41.969 132.325q-.578.297-1.219.438-.64.156-1.344.156-2.5 0-3.828-1.64-1.312-1.657-1.312-4.782t1.312-4.781q1.328-1.656 3.828-1.656.703 0 1.344.156.656.156 1.219.453v2.719q-.625-.579-1.219-.844-.594-.281-1.219-.281-1.343 0-2.031 1.078-.687 1.062-.687 3.156t.687 3.172q.688 1.062 2.031 1.062.625 0 1.219-.265.594-.281 1.219-.86z"/><text x="58" y="132.57" fill="#D9B8FF" font-family="Helvetica" font-size="17" textLength="250">aws_route53_resource_record</text><rect width="326" height="39.789" x="7" y="7" fill="#3D176E" rx="2.5" ry="2.5" style="stroke:#000d19;stroke-width:.5"/><circle cx="22" cy="26.895" r="11" fill="#ADD1B2" style="stroke:#181818;stroke-width:1"/><path d="M24.969 32.535q-.578.297-1.219.438-.64.156-1.344.156-2.5 0-3.828-1.64-1.312-1.657-1.312-4.782t1.312-4.781q1.328-1.656 3.828-1.656.703 0 1.344.156.656.156 1.219.453v2.719q-.625-.578-1.219-.844-.594-.281-1.219-.281-1.343 0-2.031 1.078-.687 1.062-.687 3.156t.687 3.172q.688 1.062 2.031 1.062.625 0 1.219-.265.594-.281 1.219-.86z"/><text x="41" y="32.78" fill="#D9B8FF" font-family="Helvetica" font-size="17" textLength="284">aws_route53_resource_record_set</text><path fill="none" d="M170 47.22v53.19" style="stroke:#1a83af;stroke-width:2"/><path fill="#1A83AF" d="m170 106.41 4-9-4 4-4-4z" style="stroke:#1a83af;stroke-width:2"/></svg>
